X: 465
T: Bî Dil Şüdeem
C: Hüseyin Fahreddin Dede
O: Turkey
F: http://compmusic.upf.edu/node/140
N: acemasiran--selam--mevlevievferi--bi_dil--huseyin_fahreddin_dede
N: makam= acemasiran
N: form= selam
N: usul= mevlevievferi = 9/4
M: 9/4
L: 1/16
K: C _B   
Q: 1/4=84
%%MIDI tuningsystem comma53
e4 f12 c8 f2e2 f4 z4  | g2_7/8a2 g2f2 _1/4b4 a2g2 g3f e2f2 e2g2 f4 z4  | 
w:  Ah  *  bî dil   |  şü *  *  *  *  *  de em   | 
c4 f2f2 fgfe f4 c8 f2e2 f4 z4  | g2_7/8a2 g2f2 _1/4b4 a2g2 g3f e2f2 e2f2 e2f2 e2d2  | 
w:  SAZ *  *  *  *  *  *  behr_ i   |  dil_ *  *  *  *  *  *  i  tû    | 
f3e d2e2 d2e2 d2c2 d6f2 e3d c8  | \
w:  *  *  *  *  *  *  *  *  Sâ *  kin   | 
d2_7/8e2 d2c2 g3^f e2d2 d3c _1/4B2c2 B2d2 c6z2  | 
w:  şü *  *  *  *  *  *  de em   | 
c2_1/4B2 c2e2 d4 c2B2 c6B2 c3_2/4B A4 z4  | \
w:  em  *  *  *  *  *  *  der  *  men  | 
A4 G2F2 A2G4A2 G3F E2F2 E2G2 F4 z4  | 
w:  zîl_ *  *  *  *  i  tû    | 
e4 f12 c8 f2e2 f4 z4  | g2_7/8a2 g2f2 _1/4b4 a2g2 g3f e2f2 e2g2 f4 z4  | 
w:  Ah  *  bî dil   |  şü *  *  *  *  *  de em   | 
c4 f2f2 fgfe f4 c8 f2e2 f4 z4  | g2_7/8a2 g2f2 _1/4b4 a2g2 g3f e2f2 e2f2 e2f2 e2d2  | 
w:  SAZ *  *  *  *  *  *  behr_ i   |  dil_ *  *  *  *  *  *  i  tû    | 
f3e d2e2 d2e2 d2c2 d6f2 e3d c8  | \
w:  *  *  *  *  *  *  *  *  Sâ *  kin   | 
d2_7/8e2 d2c2 g3^f e2d2 d3c _1/4B2c2 B2d2 c6z2  | 
w:  şü *  *  *  *  *  *  de em   | 
c2_1/4B2 c2e2 d4 c2B2 c6B2 c3_2/4B A4 z4  | \
w:  em  *  *  *  *  *  *  der  *  men  | 
A4 G2F2 A2G4A2 G3F E2F2 E2G2 F4 z4  | 
w:  zîl_ *  *  *  *  i  tû    | 
c4 f2e2 f4 g2a2 g3f e2f2 e2g2 f4 z4  | \
w:  SAZ  | 
f3e d2e2 d2e2 d2c2 d2ef e2d2 c2_1/4B2 c4 z4  | 
w:   | 
z4 d2d2 d4 g2f2 f2e4d2 c3_2/4B A4 z4  | \
w:   | 
A2B2 A2B2 c2d2 c2B2 B2A4G2 A3G F4 z4  | 
w:   | 
z4 d2d2 d4 g2f2 f2e4d2 c3_2/4B A4 z4  | \
w:   | 
A2B2 A2B2 c2d2 c2B2 B2A4G2 A3G F4 z4  | 
w:   | 
G2A2 G2F2 G2AB A2G2 G3F E2F2 E2G2 F4 z4  | \
w:   | 
g4 a2a2 a4 a2b2 a3g f2g2 f2g2 a4 z4  | 
w:   | 
g2_7/8a2 g2a2 g2a2 g2f2 g2a_1/4b a2g2 f2e2 f6z2  | \
w:   | 
z4 c2f2 f4 a2g2 g2f2 f2e2 e3d c4 z4  | 
w:   | 
d4 c2_1/4B2 _7/8e4 d2c2 c_Bcd c2B2 A2G2 A4 z4  | \
w:   | 
G2A2 G2F2 G2AB A2G2 G3F E2F2 E2G2 F6z2  | 
w:   | 
|


